X:1
T:The Green Linnet
M:6/8
L:1/8
K:F
 FF| Bdc BAG| FAcd/2-e/2 ff| BAF GFF| F3- F2 F/2F/2| Bdc BAG| FAcd/2-e/2 ff|\
 BAF GFF| F3- F2 d| cff dcB| Bff f2_a/2-g/2| fff _edc| BGG F2 F| Bd/2-d/2 c BAG|\
 FAcd/2-e/2 f f/2f/2| BAF G/2G/2 FF| F3- F2||

